X: 167
T:Goodbye Muirsheen Durkin
M:4/4
L:1/8
Z:added by Alf warnock alf0@rogers.com
K:A
AB|"A"c>cBA "E7"Bee>f|gfdB "A"cAA>B|ccBA "E7"Bee>f|gedB "A"A3e|
"A"a>aba "E7"gee>f|gedB "A"cAA>B|ccBA "E7"Bee>f|gedB "A"A4:|

